vendor/shopware/storefront/Resources/app/storefront/dist/assets/icon/default/calendar.svg

<svg xmlns="http://www.w3.org/2000/svg" width="24" height="24" viewBox="0 0 24 24">
  <path fill="#758CA3" fill-rule="evenodd" d="M21,6 L21,5 C21,4.44771525 20.5522847,4 20,4 L4,4 C3.44771525,4 3,4.44771525 3,5 L3,6 L21,6 Z M21,8 L3,8 L3,21 C3,21.5522847 3.44771525,22 4,22 L20,22 C20.5522847,22 21,21.5522847 21,21 L21,8 Z M19,2 L20,2 C21.6568542,2 23,3.34314575 23,5 L23,21 C23,22.6568542 21.6568542,24 20,24 L4,24 C2.34314575,24 1,22.6568542 1,21 L1,5 C1,3.34314575 2.34314575,2 4,2 L5,2 L5,1 C5,0.44771525 5.44771525,4.4408921e-16 6,4.4408921e-16 C6.55228475,4.4408921e-16 7,0.44771525 7,1 L7,2 L17,2 L17,1 C17,0.44771525 17.4477153,4.4408921e-16 18,4.4408921e-16 C18.5522847,4.4408921e-16 19,0.44771525 19,1 L19,2 Z M6,18 C6.55228475,18 7,18.4477153 7,19 C7,19.5522847 6.55228475,20 6,20 C5.44771525,20 5,19.5522847 5,19 C5,18.4477153 5.44771525,18 6,18 Z M10,18 C10.5522847,18 11,18.4477153 11,19 C11,19.5522847 10.5522847,20 10,20 C9.44771525,20 9,19.5522847 9,19 C9,18.4477153 9.44771525,18 10,18 Z M14,18 C14.5522847,18 15,18.4477153 15,19 C15,19.5522847 14.5522847,20 14,20 C13.4477153,20 13,19.5522847 13,19 C13,18.4477153 13.4477153,18 14,18 Z M6,14 C6.55228475,14 7,14.4477153 7,15 C7,15.5522847 6.55228475,16 6,16 C5.44771525,16 5,15.5522847 5,15 C5,14.4477153 5.44771525,14 6,14 Z M10,14 C10.5522847,14 11,14.4477153 11,15 C11,15.5522847 10.5522847,16 10,16 C9.44771525,16 9,15.5522847 9,15 C9,14.4477153 9.44771525,14 10,14 Z M14,14 C14.5522847,14 15,14.4477153 15,15 C15,15.5522847 14.5522847,16 14,16 C13.4477153,16 13,15.5522847 13,15 C13,14.4477153 13.4477153,14 14,14 Z M6,10 C6.55228475,10 7,10.4477153 7,11 C7,11.5522847 6.55228475,12 6,12 C5.44771525,12 5,11.5522847 5,11 C5,10.4477153 5.44771525,10 6,10 Z M10,10 C10.5522847,10 11,10.4477153 11,11 C11,11.5522847 10.5522847,12 10,12 C9.44771525,12 9,11.5522847 9,11 C9,10.4477153 9.44771525,10 10,10 Z M14,10 C14.5522847,10 15,10.4477153 15,11 C15,11.5522847 14.5522847,12 14,12 C13.4477153,12 13,11.5522847 13,11 C13,10.4477153 13.4477153,10 14,10 Z M18,18 C18.5522847,18 19,18.4477153 19,19 C19,19.5522847 18.5522847,20 18,20 C17.4477153,20 17,19.5522847 17,19 C17,18.4477153 17.4477153,18 18,18 Z M18,14 C18.5522847,14 19,14.4477153 19,15 C19,15.5522847 18.5522847,16 18,16 C17.4477153,16 17,15.5522847 17,15 C17,14.4477153 17.4477153,14 18,14 Z M18,10 C18.5522847,10 19,10.4477153 19,11 C19,11.5522847 18.5522847,12 18,12 C17.4477153,12 17,11.5522847 17,11 C17,10.4477153 17.4477153,10 18,10 Z"/>
</svg>

<svg xmlns="http://www.w3.org/2000/svg" width="24" height="24" viewBox="0 0 24 24"><path fill="#758CA3" fill-rule="evenodd" d="M21 6V5c0-.5523-.4477-1-1-1H4c-.5523 0-1 .4477-1 1v1h18zm0 2H3v13c0 .5523.4477 1 1 1h16c.5523 0 1-.4477 1-1V8zm-2-6h1c1.6569 0 3 1.3431 3 3v16c0 1.6569-1.3431 3-3 3H4c-1.6569 0-3-1.3431-3-3V5c0-1.6569 1.3431-3 3-3h1V1c0-.5523.4477-1 1-1s1 .4477 1 1v1h10V1c0-.5523.4477-1 1-1s1 .4477 1 1v1zM6 18c.5523 0 1 .4477 1 1s-.4477 1-1 1-1-.4477-1-1 .4477-1 1-1zm4 0c.5523 0 1 .4477 1 1s-.4477 1-1 1-1-.4477-1-1 .4477-1 1-1zm4 0c.5523 0 1 .4477 1 1s-.4477 1-1 1-1-.4477-1-1 .4477-1 1-1zm-8-4c.5523 0 1 .4477 1 1s-.4477 1-1 1-1-.4477-1-1 .4477-1 1-1zm4 0c.5523 0 1 .4477 1 1s-.4477 1-1 1-1-.4477-1-1 .4477-1 1-1zm4 0c.5523 0 1 .4477 1 1s-.4477 1-1 1-1-.4477-1-1 .4477-1 1-1zm-8-4c.5523 0 1 .4477 1 1s-.4477 1-1 1-1-.4477-1-1 .4477-1 1-1zm4 0c.5523 0 1 .4477 1 1s-.4477 1-1 1-1-.4477-1-1 .4477-1 1-1zm4 0c.5523 0 1 .4477 1 1s-.4477 1-1 1-1-.4477-1-1 .4477-1 1-1zm4 8c.5523 0 1 .4477 1 1s-.4477 1-1 1-1-.4477-1-1 .4477-1 1-1zm0-4c.5523 0 1 .4477 1 1s-.4477 1-1 1-1-.4477-1-1 .4477-1 1-1zm0-4c.5523 0 1 .4477 1 1s-.4477 1-1 1-1-.4477-1-1 .4477-1 1-1z"/></svg>
